resources/payment_providers/anycash/logo.svg

<?xml version="1.0" encoding="UTF-8"?>
<svg width="127px" height="28px" viewBox="0 0 127 28" version="1.1" xmlns="http://www.w3.org/2000/svg" xmlns:xlink="http://www.w3.org/1999/xlink">
    <!-- Generator: Sketch 47.1 (45422) - http://www.bohemiancoding.com/sketch -->
    <title>Group 9</title>
    <desc>Created with Sketch.</desc>
    <defs></defs>
    <g id="agregator" stroke="none" stroke-width="1" fill="none" fill-rule="evenodd">
        <g id="new-ac-trans1" transform="translate(-140.000000, -23.000000)">
            <g id="Group-9" transform="translate(140.000000, 23.000000)">
                <path d="M51.2822266,21 C51.1676427,20.7779937 51.0673832,20.4163437 50.9814453,19.9150391 C50.150712,20.7815799 49.1337951,21.2148438 47.9306641,21.2148438 C46.7633405,21.2148438 45.8108761,20.8818393 45.0732422,20.2158203 C44.3356083,19.5498014 43.9667969,18.7262419 43.9667969,17.7451172 C43.9667969,16.5061787 44.426916,15.5555046 45.347168,14.8930664 C46.26742,14.2306282 47.5833248,13.8994141 49.2949219,13.8994141 L50.8955078,13.8994141 L50.8955078,13.1367188 C50.8955078,12.5351532 50.7272152,12.05355 50.390625,11.6918945 C50.0540348,11.3302391 49.5419956,11.1494141 48.8544922,11.1494141 C48.2600882,11.1494141 47.7731139,11.2980128 47.3935547,11.5952148 C47.0139955,11.8924169 46.8242188,12.27018 46.8242188,12.7285156 L44.2138672,12.7285156 C44.2138672,12.0911426 44.4251281,11.4949572 44.8476562,10.9399414 C45.2701844,10.3849256 45.8448857,9.94987137 46.5717773,9.63476562 C47.298669,9.31965988 48.109696,9.16210938 49.0048828,9.16210938 C50.3655667,9.16210938 51.4505168,9.50406559 52.2597656,10.1879883 C53.0690145,10.871911 53.4843749,11.8333271 53.5058594,13.0722656 L53.5058594,18.3144531 C53.5058594,19.3600313 53.6526678,20.1943328 53.9462891,20.8173828 L53.9462891,21 L51.2822266,21 Z M48.4140625,19.1201172 C48.9296901,19.1201172 49.414874,18.9947929 49.8696289,18.7441406 C50.3243838,18.4934883 50.66634,18.1569032 50.8955078,17.734375 L50.8955078,15.5429688 L49.4882812,15.5429688 C48.5214795,15.5429688 47.7945988,15.7112613 47.3076172,16.0478516 C46.8206356,16.3844418 46.5771484,16.860674 46.5771484,17.4765625 C46.5771484,17.9778671 46.7436507,18.3771144 47.0766602,18.6743164 C47.4096696,18.9715184 47.855466,19.1201172 48.4140625,19.1201172 Z M58.646526,9.37695312 L58.7217214,10.7197266 C59.5811007,9.68130991 60.7090191,9.16210938 62.1055104,9.16210938 C64.5260954,9.16210938 65.757854,10.5478377 65.8008229,13.3193359 L65.8008229,21 L63.1904714,21 L63.1904714,13.4697266 C63.1904714,12.7320927 63.0311305,12.1860369 62.712444,11.831543 C62.3937575,11.477049 61.8727666,11.2998047 61.1494557,11.2998047 C60.0967161,11.2998047 59.3125442,11.7760369 58.7969167,12.7285156 L58.7969167,21 L56.1865651,21 L56.1865651,9.37695312 L58.646526,9.37695312 Z M72.509849,17.2617188 L74.8731302,9.37695312 L77.6553568,9.37695312 L73.0362161,22.7617188 C72.3272282,24.7168067 71.1241153,25.6943359 69.4268411,25.6943359 C69.047282,25.6943359 68.6283408,25.6298835 68.1700052,25.5009766 L68.1700052,23.4814453 L68.6641458,23.5136719 C69.3230033,23.5136719 69.8189293,23.3937186 70.1519388,23.1538086 C70.4849483,22.9138985 70.7481292,22.5110705 70.9414896,21.9453125 L71.3174661,20.9462891 L67.2354349,9.37695312 L70.049888,9.37695312 L72.509849,17.2617188 Z M78.9718047,18.25 C79.4587863,18.25 79.8347591,18.3878567 80.0997344,18.6635742 C80.3647097,18.9392917 80.4971953,19.2848287 80.4971953,19.7001953 C80.4971953,20.1084005 80.3647097,20.446776 80.0997344,20.715332 C79.8347591,20.9838881 79.4587863,21.1181641 78.9718047,21.1181641 C78.5063076,21.1181641 78.1374962,20.9856784 77.8653594,20.7207031 C77.5932226,20.4557278 77.4571562,20.115562 77.4571562,19.7001953 C77.4571562,19.2848287 77.5896419,18.9392917 77.8546172,18.6635742 C78.1195925,18.3878567 78.4919846,18.25 78.9718047,18.25 Z M88.1085651,20.1298828 C89.0037519,20.1298828 89.7539071,19.8774439 90.3590534,19.3725586 C90.9641996,18.8676733 91.2918331,18.2141967 91.3419635,17.4121094 L92.5773151,17.4121094 C92.5415076,18.1210973 92.3195046,18.7674124 91.9112995,19.3510742 C91.5030943,19.934736 90.9606193,20.3912744 90.2838581,20.7207031 C89.6070969,21.0501319 88.8820065,21.2148438 88.1085651,21.2148438 C86.5831669,21.2148438 85.3746828,20.6849011 84.4830768,19.625 C83.5914708,18.5650989 83.1456745,17.1399829 83.1456745,15.3496094 L83.1456745,14.9628906 C83.1456745,13.8170516 83.3461933,12.8037153 83.747237,11.9228516 C84.1482807,11.0419878 84.7229819,10.361656 85.4713581,9.88183594 C86.2197342,9.40201583 87.0952137,9.16210938 88.0978229,9.16210938 C89.3725689,9.16210938 90.4235024,9.54166287 91.2506549,10.3007812 C92.0778075,11.0598996 92.5200232,12.0589131 92.5773151,13.2978516 L91.3419635,13.2978516 C91.2846716,12.3883418 90.9570381,11.6542997 90.3590534,11.0957031 C89.7610686,10.5371066 89.0073327,10.2578125 88.0978229,10.2578125 C86.9376609,10.2578125 86.0371165,10.6767536 85.3961628,11.5146484 C84.755209,12.3525433 84.434737,13.5270107 84.434737,15.0380859 L84.434737,15.4140625 C84.434737,16.8964918 84.755209,18.0530557 85.3961628,18.8837891 C86.0371165,19.7145224 86.9412416,20.1298828 88.1085651,20.1298828 Z M102.46447,21 C102.335563,20.6347638 102.253207,20.0940791 102.2174,19.3779297 C101.766226,19.9651722 101.191525,20.4181299 100.493279,20.7368164 C99.7950332,21.0555029 99.05562,21.2148438 98.2750172,21.2148438 C97.1578241,21.2148438 96.253699,20.9033234 95.5626148,20.2802734 C94.8715307,19.6572234 94.5259937,18.8694709 94.5259937,17.9169922 C94.5259937,16.7854761 94.9968549,15.8903028 95.9385914,15.2314453 C96.8803279,14.5725879 98.192652,14.2431641 99.8756031,14.2431641 L102.206658,14.2431641 L102.206658,12.921875 C102.206658,12.0911417 101.950638,11.4376651 101.438591,10.9614258 C100.926545,10.4851864 100.17997,10.2470703 99.1988453,10.2470703 C98.3036585,10.2470703 97.562455,10.4762347 96.9752125,10.9345703 C96.38797,11.3929059 96.0943531,11.9443327 96.0943531,12.5888672 L94.8052906,12.578125 C94.8052906,11.6542923 95.2349738,10.8540073 96.0943531,10.1772461 C96.9537324,9.5004849 98.010037,9.16210938 99.2632984,9.16210938 C100.559529,9.16210938 101.581817,9.48616212 102.330193,10.1342773 C103.078569,10.7823926 103.463494,11.6865176 103.484978,12.8466797 L103.484978,18.3466797 C103.484978,19.4710343 103.603141,20.3124972 103.83947,20.8710938 L103.83947,21 L102.46447,21 Z M98.4254078,20.0761719 C99.2847871,20.0761719 100.052846,19.8684917 100.729607,19.453125 C101.406368,19.0377583 101.898714,18.4827509 102.206658,17.7880859 L102.206658,15.2314453 L99.9078297,15.2314453 C98.6259222,15.2457683 97.6233281,15.4803037 96.9000172,15.9350586 C96.1767063,16.3898135 95.8150562,17.0146445 95.8150562,17.8095703 C95.8150562,18.4612663 96.0567531,19.001951 96.5401539,19.4316406 C97.0235548,19.8613303 97.6519664,20.0761719 98.4254078,20.0761719 Z M113.855532,18.0458984 C113.855532,17.4085255 113.599512,16.8964863 113.087465,16.5097656 C112.575419,16.1230449 111.803779,15.8204764 110.772524,15.6020508 C109.741269,15.3836252 108.940984,15.1329767 108.371645,14.8500977 C107.802306,14.5672186 107.379784,14.2216817 107.104067,13.8134766 C106.828349,13.4052714 106.690493,12.9111357 106.690493,12.3310547 C106.690493,11.4143834 107.073627,10.6570668 107.839907,10.059082 C108.606187,9.46109727 109.587297,9.16210938 110.783266,9.16210938 C112.079497,9.16210938 113.119688,9.48258143 113.903872,10.1235352 C114.688055,10.7644889 115.080141,11.6005808 115.080141,12.6318359 L113.791079,12.6318359 C113.791079,11.951494 113.506414,11.3857444 112.937075,10.9345703 C112.367736,10.4833962 111.649807,10.2578125 110.783266,10.2578125 C109.93821,10.2578125 109.259668,10.4457989 108.747622,10.8217773 C108.235575,11.1977558 107.979555,11.6865204 107.979555,12.2880859 C107.979555,12.868167 108.192606,13.317544 108.618715,13.6362305 C109.044824,13.954917 109.821835,14.2467435 110.94977,14.5117188 C112.077705,14.776694 112.922749,15.0595688 113.484926,15.3603516 C114.047104,15.6611343 114.464254,16.0227843 114.736391,16.4453125 C115.008528,16.8678407 115.144594,17.3798798 115.144594,17.9814453 C115.144594,18.96257 114.748928,19.7467419 113.957583,20.3339844 C113.166237,20.9212269 112.133207,21.2148438 110.858461,21.2148438 C109.504939,21.2148438 108.407457,20.8872103 107.565981,20.2319336 C106.724505,19.5766569 106.303774,18.7477264 106.303774,17.7451172 L107.592836,17.7451172 C107.642967,18.4970741 107.959858,19.0825174 108.54352,19.5014648 C109.127182,19.9204123 109.898821,20.1298828 110.858461,20.1298828 C111.753648,20.1298828 112.476948,19.9329447 113.028383,19.5390625 C113.579818,19.1451803 113.855532,18.6474639 113.855532,18.0458984 Z M119.295421,11.3427734 C119.71795,10.6481085 120.258634,10.1110045 120.917492,9.73144531 C121.576349,9.35188612 122.296068,9.16210938 123.076671,9.16210938 C124.322771,9.16210938 125.250171,9.51301732 125.858898,10.2148438 C126.467625,10.9166702 126.775565,11.969394 126.782726,13.3730469 L126.782726,21 L125.504406,21 L125.504406,13.3623047 C125.497244,12.323888 125.277032,11.5504583 124.843761,11.0419922 C124.410491,10.5335261 123.717627,10.2792969 122.765148,10.2792969 C121.970222,10.2792969 121.266616,10.5281551 120.654308,11.0258789 C120.042,11.5236027 119.589043,12.1949828 119.295421,13.0400391 L119.295421,21 L118.017101,21 L118.017101,4.5 L119.295421,4.5 L119.295421,11.3427734 Z" id="any.cash-copy-2" fill="#1469EB"></path>
                <g id="anycash-logo-copy-2">
                    <ellipse id="Oval" fill="#1469EB" cx="13.6606061" cy="14" rx="13.6606061" ry="13.2588235"></ellipse>
                    <rect id="Rectangle-path" fill="#FFFFFF" transform="translate(13.603164, 18.355071) rotate(180.000000) translate(-13.603164, -18.355071) " x="10.8455879" y="16.3786" width="5.51515152" height="3.95294118"></rect>
                    <polygon id="Shape" fill="#FFFFFF" points="13.6606061 3.29411765 24.1818182 14.3294118 24.1818182 20.3411765 13.6606061 9.71764706 3.13939394 20.3411765 3.13939394 14.3294118"></polygon>
                </g>
            </g>
        </g>
    </g>
</svg>

<?xml version="1.0" encoding="UTF-8"?>
<svg version="1.1" viewBox="0 0 127 28" xmlns="http://www.w3.org/2000/svg">
<title>Group 9</title>
<desc>Created with Sketch.</desc>
<g fill="none" fill-rule="evenodd">
<g transform="translate(-140 -23)">
<g transform="translate(140 23)">
<path d="m51.282 21c-0.11458-0.22201-0.21484-0.58366-0.30078-1.085-0.83073 0.86654-1.8477 1.2998-3.0508 1.2998-1.1673 0-2.1198-0.333-2.8574-0.99902-0.73763-0.66602-1.1064-1.4896-1.1064-2.4707 0-1.2389 0.46012-2.1896 1.3804-2.8521s2.2362-0.99365 3.9478-0.99365h1.6006v-0.7627c0-0.60157-0.16829-1.0832-0.50488-1.4448-0.33659-0.36166-0.84863-0.54248-1.5361-0.54248-0.5944 0-1.0814 0.1486-1.4609 0.4458-0.37956 0.2972-0.56934 0.67497-0.56934 1.1333h-2.6104c0-0.63737 0.21126-1.2336 0.63379-1.7886 0.42253-0.55502 0.99723-0.99007 1.7241-1.3052 0.72689-0.31511 1.5379-0.47266 2.4331-0.47266 1.3607 0 2.4456 0.34196 3.2549 1.0259 0.80925 0.68392 1.2246 1.6453 1.2461 2.8843v5.2422c0 1.0456 0.14681 1.8799 0.44043 2.5029v0.18262h-2.6641zm-2.8682-1.8799c0.51563 0 1.0008-0.12532 1.4556-0.37598s0.79671-0.58724 1.0259-1.0098v-2.1914h-1.4072c-0.9668 0-1.6937 0.16829-2.1807 0.50488-0.48698 0.33659-0.73047 0.81282-0.73047 1.4287 0 0.5013 0.1665 0.90055 0.49951 1.1978 0.33301 0.2972 0.77881 0.4458 1.3374 0.4458zm10.232-9.7432 0.075195 1.3428c0.85938-1.0384 1.9873-1.5576 3.3838-1.5576 2.4206 0 3.6523 1.3857 3.6953 4.1572v7.6807h-2.6104v-7.5303c0-0.73763-0.15934-1.2837-0.47803-1.6382-0.31869-0.35449-0.83968-0.53174-1.563-0.53174-1.0527 0-1.8369 0.47623-2.3525 1.4287v8.2715h-2.6104v-11.623h2.46zm13.863 7.8848 2.3633-7.8848h2.7822l-4.6191 13.385c-0.70899 1.9551-1.9121 2.9326-3.6094 2.9326-0.37956 0-0.7985-0.064452-1.2568-0.19336v-2.0195l0.49414 0.032227c0.65886 0 1.1548-0.11995 1.4878-0.35986 0.33301-0.23991 0.59619-0.64274 0.78955-1.2085l0.37598-0.99902-4.082-11.569h2.8145l2.46 7.8848zm6.462 0.98828c0.48698 0 0.86295 0.13786 1.1279 0.41357s0.39746 0.62125 0.39746 1.0366c0 0.40821-0.13249 0.74658-0.39746 1.0151-0.26498 0.26856-0.64095 0.40283-1.1279 0.40283-0.4655 0-0.83431-0.13249-1.1064-0.39746s-0.4082-0.60514-0.4082-1.0205c0-0.41537 0.13249-0.7609 0.39746-1.0366s0.63737-0.41357 1.1172-0.41357zm9.1368 1.8799c0.89519 0 1.6453-0.25244 2.2505-0.75732 0.60515-0.50489 0.93278-1.1584 0.98291-1.9604h1.2354c-0.035808 0.70899-0.25781 1.3553-0.66602 1.939-0.40821 0.58366-0.95068 1.0402-1.6274 1.3696-0.67676 0.32943-1.4019 0.49414-2.1753 0.49414-1.5254 0-2.7339-0.52994-3.6255-1.5898s-1.3374-2.485-1.3374-4.2754v-0.38672c0-1.1458 0.20052-2.1592 0.60156-3.04 0.40104-0.88086 0.97574-1.5612 1.7241-2.041 0.74838-0.47982 1.6239-0.71973 2.6265-0.71973 1.2747 0 2.3257 0.37955 3.1528 1.1387 0.82715 0.75912 1.2694 1.7581 1.3267 2.9971h-1.2354c-0.057292-0.90951-0.38493-1.6436-0.98291-2.2021-0.59798-0.5586-1.3517-0.83789-2.2612-0.83789-1.1602 0-2.0607 0.41894-2.7017 1.2568-0.64095 0.83789-0.96143 2.0124-0.96143 3.5234v0.37598c0 1.4824 0.32047 2.639 0.96143 3.4697 0.64095 0.83073 1.5451 1.2461 2.7124 1.2461zm14.356 0.87012c-0.12891-0.36524-0.21126-0.90592-0.24707-1.6221-0.45117 0.58724-1.0259 1.0402-1.7241 1.3589-0.69825 0.31869-1.4377 0.47803-2.2183 0.47803-1.1172 0-2.0213-0.31152-2.7124-0.93457-0.69108-0.62305-1.0366-1.4108-1.0366-2.3633 0-1.1315 0.47086-2.0267 1.4126-2.6855 0.94174-0.65886 2.2541-0.98828 3.937-0.98828h2.3311v-1.3213c0-0.83073-0.25602-1.4842-0.76807-1.9604-0.51205-0.47624-1.2586-0.71436-2.2397-0.71436-0.89519 0-1.6364 0.22916-2.2236 0.6875s-0.88086 1.0098-0.88086 1.6543l-1.2891-0.010742c0-0.92383 0.42968-1.7241 1.2891-2.4009s1.9157-1.0151 3.1689-1.0151c1.2962 0 2.3185 0.32405 3.0669 0.97217 0.74838 0.64812 1.1333 1.5522 1.1548 2.7124v5.5c0 1.1244 0.11816 1.9658 0.35449 2.5244v0.12891h-1.375zm-4.0391-0.92383c0.85938 0 1.6274-0.20768 2.3042-0.62305s1.1691-0.97037 1.4771-1.665v-2.5566h-2.2988c-1.2819 0.014323-2.2845 0.24886-3.0078 0.70361s-1.085 1.0796-1.085 1.8745c0 0.6517 0.2417 1.1924 0.7251 1.6221 0.4834 0.42969 1.1118 0.64453 1.8853 0.64453zm15.43-2.0303c0-0.63737-0.25602-1.1494-0.76807-1.5361-0.51205-0.38672-1.2837-0.68929-2.3149-0.90771s-1.8315-0.46907-2.4009-0.75195c-0.56934-0.28288-0.99186-0.62842-1.2676-1.0366-0.27572-0.40821-0.41357-0.90234-0.41357-1.4824 0-0.91667 0.38313-1.674 1.1494-2.272 0.76628-0.59798 1.7474-0.89697 2.9434-0.89697 1.2962 0 2.3364 0.32047 3.1206 0.96143 0.78418 0.64095 1.1763 1.477 1.1763 2.5083h-1.2891c0-0.68034-0.28466-1.2461-0.854-1.6973s-1.2873-0.67676-2.1538-0.67676c-0.84506 0-1.5236 0.18799-2.0356 0.56396-0.51205 0.37598-0.76807 0.86474-0.76807 1.4663 0 0.58008 0.21305 1.0295 0.63916 1.3481s1.2031 0.61051 2.3311 0.87549c1.1279 0.26498 1.973 0.54785 2.5352 0.84863 0.56218 0.30078 0.97933 0.66243 1.2515 1.085s0.4082 0.93457 0.4082 1.5361c0 0.98112-0.39567 1.7653-1.187 2.3525-0.79135 0.58724-1.8244 0.88086-3.0991 0.88086-1.3535 0-2.451-0.32763-3.2925-0.98291s-1.2622-1.4842-1.2622-2.4868h1.2891c0.050131 0.75196 0.36702 1.3374 0.95068 1.7563 0.58366 0.41895 1.3553 0.62842 2.3149 0.62842 0.89519 0 1.6185-0.19694 2.1699-0.59082s0.82715-0.8916 0.82715-1.4932zm5.4399-6.7031c0.42253-0.69466 0.96321-1.2318 1.6221-1.6113 0.65886-0.37956 1.3786-0.56934 2.1592-0.56934 1.2461 0 2.1735 0.35091 2.7822 1.0527 0.60873 0.70183 0.91667 1.7546 0.92383 3.1582v7.627h-1.2783v-7.6377c-0.007162-1.0384-0.22737-1.8118-0.66064-2.3203-0.43327-0.50847-1.1261-0.7627-2.0786-0.7627-0.79493 0-1.4985 0.24886-2.1108 0.74658s-1.0653 1.1691-1.3589 2.0142v7.96h-1.2783v-16.5h1.2783v6.8428z" fill="#1469EB"/>
<ellipse cx="13.661" cy="14" rx="13.661" ry="13.259" fill="#1469EB"/>
<rect transform="translate(13.603 18.355) rotate(180) translate(-13.603 -18.355)" x="10.846" y="16.379" width="5.5152" height="3.9529" fill="#fff"/>
<polygon points="13.661 3.2941 24.182 14.329 24.182 20.341 13.661 9.7176 3.1394 20.341 3.1394 14.329" fill="#fff"/>
</g>
</g>
</g>
</svg>
